material/.icons/material/cog-transfer-outline.svg

<svg xmlns="http://www.w3.org/2000/svg" viewBox="0 0 24 24"><path d="M15 17v-3h3v-2l4 3.5-4 3.5v-2h-3m2 1v3h-3v2l-4-3.5 4-3.5v2h3M12 8c-2.21 0-4 1.8-4 4 0 1.91 1.35 3.54 3.21 3.92L16 11.86A3.997 3.997 0 0012 8m0 6c-1.1 0-2-.89-2-2s.9-2 2-2 2 .9 2 2-.89 2-2 2m9.66-5.27l-2-3.46c-.12-.22-.38-.31-.61-.22l-2.49 1c-.51-.41-1.06-.74-1.69-1l-.37-2.63A.506.506 0 0014 2h-4c-.25 0-.46.18-.5.42l-.37 2.65c-.63.26-1.17.59-1.69 1L5 5.05c-.23-.09-.5 0-.61.22l-2 3.46c-.13.21-.08.49.11.64L4.57 11l-.07 1 .07 1-2.11 1.63c-.2.15-.25.43-.12.64l2 3.46c.11.27.4.38.66.27l2.5-1c.24.19.5.37.76.53l1.65-1.4c-.77-.33-1.45-.82-2-1.45l-2.41 1-.77-1.3L6.8 13.8a5.55 5.55 0 010-3.6L4.69 8.65l.75-1.3 2.41 1c.78-.9 1.83-1.53 3-1.78l.4-2.57h1.5l.37 2.62c1.17.24 2.22.88 3 1.77l2.41-1 .75 1.3-2.08 1.51c.09.26.16.53.2.8h2l2.1-1.63a.48.48 0 00.16-.64M12 8c-2.21 0-4 1.8-4 4 0 1.91 1.35 3.54 3.21 3.92L16 11.86A3.997 3.997 0 0012 8m0 6c-1.1 0-2-.89-2-2s.9-2 2-2 2 .9 2 2-.89 2-2 2m0-6c-2.21 0-4 1.8-4 4 0 1.91 1.35 3.54 3.21 3.92L16 11.86A3.997 3.997 0 0012 8m0 6c-1.1 0-2-.89-2-2s.9-2 2-2 2 .9 2 2-.89 2-2 2z"/></svg>

<?xml version="1.0" encoding="UTF-8"?><!DOCTYPE svg PUBLIC "-//W3C//DTD SVG 1.1//EN" "http://www.w3.org/Graphics/SVG/1.1/DTD/svg11.dtd"><svg xmlns="http://www.w3.org/2000/svg" xmlns:xlink="http://www.w3.org/1999/xlink" version="1.1" id="mdi-cog-transfer-outline" width="24" height="24" viewBox="0 0 24 24"><path d="M15 17V14H18V12L22 15.5L18 19V17H15M17 18V21H14V23L10 19.5L14 16V18H17M12 8C9.79 8 8 9.8 8 12C8 13.91 9.35 15.54 11.21 15.92L16 11.86C15.93 9.71 14.16 8 12 8M12 14C10.9 14 10 13.11 10 12S10.9 10 12 10 14 10.9 14 12 13.11 14 12 14M21.66 8.73L19.66 5.27C19.54 5.05 19.28 4.96 19.05 5.05L16.56 6.05C16.05 5.64 15.5 5.31 14.87 5.05L14.5 2.42C14.46 2.18 14.25 2 14 2H10C9.75 2 9.54 2.18 9.5 2.42L9.13 5.07C8.5 5.33 7.96 5.66 7.44 6.07L5 5.05C4.77 4.96 4.5 5.05 4.39 5.27L2.39 8.73C2.26 8.94 2.31 9.22 2.5 9.37L4.57 11L4.5 12L4.57 13L2.46 14.63C2.26 14.78 2.21 15.06 2.34 15.27L4.34 18.73C4.45 19 4.74 19.11 5 19L5 19L7.5 18C7.74 18.19 8 18.37 8.26 18.53L9.91 17.13C9.14 16.8 8.46 16.31 7.91 15.68L5.5 16.68L4.73 15.38L6.8 13.8C6.4 12.63 6.4 11.37 6.8 10.2L4.69 8.65L5.44 7.35L7.85 8.35C8.63 7.45 9.68 6.82 10.85 6.57L11.25 4H12.75L13.12 6.62C14.29 6.86 15.34 7.5 16.12 8.39L18.53 7.39L19.28 8.69L17.2 10.2C17.29 10.46 17.36 10.73 17.4 11H19.4L21.5 9.37C21.72 9.23 21.78 8.95 21.66 8.73M12 8C9.79 8 8 9.8 8 12C8 13.91 9.35 15.54 11.21 15.92L16 11.86C15.93 9.71 14.16 8 12 8M12 14C10.9 14 10 13.11 10 12S10.9 10 12 10 14 10.9 14 12 13.11 14 12 14M12 8C9.79 8 8 9.8 8 12C8 13.91 9.35 15.54 11.21 15.92L16 11.86C15.93 9.71 14.16 8 12 8M12 14C10.9 14 10 13.11 10 12S10.9 10 12 10 14 10.9 14 12 13.11 14 12 14Z" /></svg>
